X:1
L:1/8
Q:1/4=110
M:3/4
K:Bb
 F2 |""_f"" B2 B2 B2 | B4 (Bd) | e2 e2 e2 | e2 z cde | f2 fede | f2 bbag | f2 e2 d2 | c2 z2 f2 | 
 B2 B2 B2 | B4 (Bd) | e2 e2 e2 | e2 z cde | f2 fede | fgabag | fe d2""^tr"" c2 | [BD]4 || (F2""_p"" | 
 c2) c2 c2 | c3 edc | B2 BdcA | B2 z edc | =B2 Bfed | c2 cgfd | cgfedc | (B2 A2) F2 | B2 B2 B2 | 
 B4 (Bd) | e2 e2 e2 | e2""_p"" z cde | f2 fede | fgabag | f>e d2""^tr"" c2 | [BD]4 ||
